X:240
T:Julia MacMahon
C:Joe Buchanan's Scottish Tome - Page 299.3
I:298 3
Z:Carl Allison
R:Jig
L:1/8
M:6/8
K:A
e | "A"ABA "E"ABc | "A"ece "E"a2 e | "A"cBA "E"ABc | "A"ecA "G"=GAB |
[1"A"ABA "E"ABc | "A"ece "F#m"a2 e | "^2nd""Bm"cde "E7"fdB | "A"A3 A2 :|
e | "A"aba "A7"gfe | "D"fgf "E"e2 e | "A"aec "E"ABc | "A"ecA "G"B2 e |
[2"A"aba "A7"gfe | "D"fga "Em"e2 d | "^1st""F#m"cde "E"fdB | "A"A3 A2 :|

